; generated by PrusaSlicer 2.8.0+linux-x64-GTK3 on 2024-08-04 at 15:42:31 UTC

; 

; external perimeters extrusion width = 0.42mm
; perimeters extrusion width = 0.44mm
; infill extrusion width = 0.44mm
; solid infill extrusion width = 0.44mm
; top infill extrusion width = 0.40mm
; first layer extrusion width = 0.42mm

M201 X500 Y500 Z100 E5000 ; sets maximum accelerations, mm/sec^2
M203 X500 Y500 Z10 E60 ; sets maximum feedrates, mm / sec
M204 S500 T1000 ; sets acceleration (S) and retract acceleration (R), mm/sec^2
M205 X8.00 Y8.00 Z0.40 E5.00 ; sets the jerk limits, mm/sec
M205 S0 T0 ; sets the minimum extruding and travel feed rate, mm/sec

; printing object TroopTableSign.stl id:0 copy 0
; stop printing object TroopTableSign.stl id:0 copy 0

;TYPE:Custom
G90 ; use absolute coordinates
M83 ; extruder relative mode
M104 S150 ; set temporary nozzle temp to prevent oozing during homing
M140 S60 ; set final bed temp
G4 S30 ; allow partial nozzle warmup
G28 ; home all axis
G1 Z50 F240
G1 X2.0 Y10 F3000
M104 S225 ; set final nozzle temp
M190 S60 ; wait for bed temp to stabilize
M109 S225 ; wait for nozzle temp to stabilize
G1 Z0.28 F240
G92 E0
G1 X2.0 Y140 E10 F1500 ; prime the nozzle
G1 X2.3 Y140 F5000
G92 E0
G1 X2.3 Y10 E10 F1200 ; prime the nozzle
G92 E0
G21 ; set units to millimeters
G90 ; use absolute coordinates
M83 ; use relative distances for extrusion
; Filament gcode
M107
;LAYER_CHANGE
;Z:0.2
;HEIGHT:0.2
G1 E-3 F3600
G1 Z.2 F9000
G1 X77.122 Y96.188
G1 Z.2
G1 E3 F2400
M204 S500
;TYPE:Skirt/Brim
;WIDTH:0.42
G1 F1200
G1 X78.976 Y94.726 E.07033
G1 X80.973 Y93.465 E.07035
G1 X82.559 Y92.657 E.05302
G1 X84.752 Y91.783 E.07032
G1 X87.595 Y91.021 E.08767
G1 X89.352 Y90.742 E.05299
G1 X91.709 Y90.588 E.07036
G1 X208.291 Y90.588 E3.47258
G1 X210.068 Y90.682 E.053
G1 X212.405 Y91.021 E.07034
G1 X214.694 Y91.603 E.07035
G1 X216.909 Y92.42 E.07032
G1 X219.531 Y93.756 E.08765
G1 X221.495 Y95.068 E.07035
G1 X223.311 Y96.577 E.07033
G1 X224.959 Y98.269 E.07035
G1 X226.079 Y99.652 E.05301
G1 X227.39 Y101.615 E.07031
G1 X228.306 Y103.345 E.05831
G1 X228.726 Y104.237 E.02937
G1 X229.544 Y106.453 E.07036
G1 X230.126 Y108.741 E.07032
G1 X230.404 Y110.499 E.05302
G1 X230.566 Y113.146 E.07899
G1 X230.566 Y171.854 E1.74871
G1 X230.404 Y174.501 E.07899
G1 X230.004 Y176.829 E.07036
G1 X229.364 Y179.101 E.07031
G1 X228.489 Y181.295 E.07036
G1 X227.39 Y183.385 E.07034
G1 X226.079 Y185.348 E.07031
G1 X224.569 Y187.164 E.07035
G1 X222.878 Y188.812 E.07033
G1 X221.024 Y190.275 E.07035
G1 X219.027 Y191.535 E.07033
G1 X217.441 Y192.343 E.05302
G1 X215.248 Y193.217 E.07032
G1 X212.405 Y193.979 E.08767
G1 X210.648 Y194.257 E.05299
G1 X208.291 Y194.412 E.07036
G1 X91.709 Y194.412 E3.47258
G1 X89.932 Y194.318 E.053
G1 X88.154 Y194.068 E.05348
G1 X87.025 Y193.858 E.03421
G1 X85.306 Y193.397 E.05301
G1 X83.091 Y192.58 E.07032
G1 X80.973 Y191.535 E.07035
G1 X78.976 Y190.275 E.07033
G1 X77.122 Y188.812 E.07035
G1 X75.041 Y186.731 E.08766
G1 X73.579 Y184.877 E.07033
G1 X72.61 Y183.385 E.05299
G1 X71.694 Y181.655 E.05831
G1 X70.636 Y179.101 E.08234
G1 X69.996 Y176.829 E.07031
G1 X69.535 Y173.922 E.08767
G1 X69.434 Y171.854 E.06167
G1 X69.434 Y113.146 E1.74871
G1 X69.535 Y111.078 E.06167
G1 X69.874 Y108.741 E.07034
G1 X70.456 Y106.453 E.07032
G1 X71.274 Y104.237 E.07036
G1 X72.319 Y102.12 E.07032
G1 X73.579 Y100.123 E.07033
G1 X75.431 Y97.836 E.08766
G1 X77.079 Y96.23 E.06854
G1 X77.079 Y96.23 F9000
G1 X77.341 Y96.498
G1 F1200
G1 X77.36 Y96.481 E.00076
G1 X79.182 Y95.042 E.06916
G1 X81.361 Y93.691 E.07637
G1 X83.226 Y92.772 E.06193
G1 X84.887 Y92.135 E.05299
G1 X87.654 Y91.393 E.08533
G1 X89.411 Y91.115 E.05299
G1 X91.728 Y90.965 E.06916
G1 X208.272 Y90.965 E3.47145
G1 X210.589 Y91.115 E.06916
G1 X212.346 Y91.393 E.05299
G1 X214.596 Y91.967 E.06917
G1 X216.774 Y92.772 E.06916
G1 X219.326 Y94.073 E.08532
G1 X221.258 Y95.361 E.06916
G1 X223.044 Y96.844 E.06915
G1 X224.666 Y98.506 E.06917
G1 X225.786 Y99.889 E.05301
G1 X227.074 Y101.821 E.06916
G1 X227.97 Y103.516 E.05711
G1 X228.374 Y104.372 E.02819
G1 X229.18 Y106.55 E.06917
G1 X229.753 Y108.8 E.06916
G1 X230.032 Y110.558 E.05302
G1 X230.189 Y113.146 E.07723
G1 X230.189 Y171.854 E1.74871
G1 X230.032 Y174.442 E.07723
G1 X229.64 Y176.731 E.06917
G1 X229.012 Y178.966 E.06915
G1 X228.153 Y181.124 E.06918
G1 X227.074 Y183.179 E.06914
G1 X225.786 Y185.111 E.06916
G1 X224.302 Y186.898 E.06919
G1 X222.64 Y188.519 E.06915
G1 X220.818 Y189.958 E.06916
G1 X218.856 Y191.199 E.06915
G1 X217.27 Y192.007 E.05302
G1 X215.113 Y192.865 E.06915
G1 X212.346 Y193.607 E.08533
G1 X210.589 Y193.885 E.05299
G1 X208.272 Y194.035 E.06916
G1 X91.728 Y194.035 E3.47145
G1 X89.951 Y193.942 E.053
G1 X88.213 Y193.695 E.05229
G1 X87.123 Y193.494 E.03301
G1 X85.404 Y193.033 E.05301
G1 X83.226 Y192.228 E.06916
G1 X81.144 Y191.199 E.06918
G1 X79.182 Y189.958 E.06915
G1 X77.36 Y188.519 E.06916
G1 X75.334 Y186.494 E.08532
G1 X73.895 Y184.672 E.06916
G1 X72.926 Y183.179 E.05302
G1 X72.03 Y181.484 E.05711
G1 X70.988 Y178.966 E.08117
G1 X70.36 Y176.731 E.06915
G1 X69.912 Y173.902 E.08532
G1 X69.811 Y171.854 E.06108
G1 X69.811 Y113.146 E1.74871
G1 X69.912 Y111.098 E.06108
G1 X70.247 Y108.8 E.06917
G1 X70.82 Y106.55 E.06916
G1 X71.626 Y104.373 E.06915
G1 X72.655 Y102.291 E.06918
G1 X73.895 Y100.328 E.06916
G1 X75.698 Y98.102 E.08533
G1 X77.299 Y96.54 E.06663
G1 E-2.1 F3600
;WIPE_START
G1 F7200
G1 X77.341 Y96.498 E-.02821
G1 X77.36 Y96.481 E-.01211
G1 X78.78 Y95.359 E-.85968
;WIPE_END
; printing object TroopTableSign.stl id:0 copy 0
G1 X81.381 Y101.27 F9000
G1 E3 F2400
;TYPE:Perimeter
;WIDTH:0.419999
G1 F1200
G1 X82.634 Y100.255 E.04803
G1 X84.033 Y99.347 E.04968
G1 X85.519 Y98.59 E.04968
G1 X87.076 Y97.992 E.04968
G1 X88.687 Y97.56 E.04968
G1 X90.334 Y97.299 E.04967
G1 X92.028 Y97.211 E.05053
G1 X208.05 Y97.215 E3.45589
G1 X209.666 Y97.299 E.0482
G1 X211.313 Y97.56 E.04967
G1 X212.924 Y97.992 E.04968
G1 X214.481 Y98.59 E.04968
G1 X215.967 Y99.347 E.04968
G1 X217.366 Y100.255 E.04968
G1 X218.662 Y101.305 E.04968
G1 X219.842 Y102.484 E.04969
G1 X220.891 Y103.78 E.04966
G1 X221.8 Y105.179 E.0497
G1 X222.523 Y106.6 E.04749
G1 X223.155 Y108.225 E.05194
G1 X223.586 Y109.834 E.04962
G1 X223.847 Y111.481 E.04967
G1 X223.913 Y112.746 E.03773
G1 X223.936 Y113.604 E.02557
G1 X223.936 Y171.826 E1.73423
G1 X223.847 Y173.519 E.0505
G1 X223.586 Y175.166 E.04967
G1 X223.154 Y176.778 E.04971
G1 X222.557 Y178.335 E.04967
G1 X221.8 Y179.821 E.04968
G1 X220.891 Y181.22 E.0497
G1 X219.842 Y182.516 E.04966
G1 X218.662 Y183.695 E.04969
G1 X217.366 Y184.745 E.04968
G1 X215.967 Y185.653 E.04968
G1 X214.481 Y186.41 E.04968
G1 X212.924 Y187.008 E.04968
G1 X211.313 Y187.44 E.04968
G1 X209.666 Y187.701 E.04967
G1 X207.972 Y187.789 E.05053
G1 X92.028 Y187.789 E3.45357
G1 X90.334 Y187.701 E.05053
G1 X88.687 Y187.44 E.04967
G1 X87.076 Y187.008 E.04968
G1 X85.519 Y186.41 E.04968
G1 X84.033 Y185.653 E.04968
G1 X82.634 Y184.745 E.04968
G1 X81.338 Y183.695 E.04968
G1 X80.158 Y182.516 E.04969
G1 X79.109 Y181.22 E.04966
G1 X78.2 Y179.821 E.0497
G1 X77.477 Y178.4 E.04749
G1 X76.845 Y176.776 E.05191
G1 X76.414 Y175.166 E.04964
G1 X76.153 Y173.519 E.04967
G1 X76.064 Y171.826 E.0505
G1 X76.064 Y113.174 E1.74704
G1 X76.153 Y111.481 E.0505
G1 X76.414 Y109.834 E.04967
G1 X76.846 Y108.222 E.04971
G1 X77.443 Y106.665 E.04967
G1 X78.2 Y105.179 E.04968
G1 X79.109 Y103.78 E.0497
G1 X80.112 Y102.541 E.04748
G1 X81.335 Y101.308 E.05173
G1 X81.335 Y101.308 F9000
G1 X81.068 Y101.042
G1 F1200
G1 X81.086 Y101.024 E.00076
G1 X82.412 Y99.95 E.05083
G1 X83.844 Y99.02 E.05086
G1 X85.365 Y98.245 E.05085
G1 X86.959 Y97.633 E.05086
G1 X88.609 Y97.191 E.05088
G1 X90.295 Y96.924 E.05085
G1 X92.018 Y96.834 E.05139
G1 X208.06 Y96.838 E3.45649
G1 X209.705 Y96.924 E.04907
G1 X211.391 Y97.191 E.05085
G1 X213.041 Y97.633 E.05088
G1 X214.635 Y98.245 E.05086
G1 X216.156 Y99.02 E.05085
G1 X217.588 Y99.95 E.05086
G1 X218.915 Y101.024 E.05085
G1 X220.122 Y102.232 E.05087
G1 X221.197 Y103.559 E.05087
G1 X222.127 Y104.99 E.05084
G1 X222.868 Y106.446 E.04866
G1 X223.514 Y108.107 E.05309
G1 X223.956 Y109.755 E.05082
G1 X224.223 Y111.441 E.05085
G1 X224.29 Y112.726 E.03833
G1 X224.313 Y113.604 E.02616
G1 X224.313 Y171.836 E1.73453
G1 X224.223 Y173.559 E.05139
G1 X223.956 Y175.245 E.05085
G1 X223.514 Y176.894 E.05085
G1 X222.902 Y178.488 E.05086
G1 X222.127 Y180.01 E.05087
G1 X221.197 Y181.441 E.05084
G1 X220.122 Y182.768 E.05087
G1 X218.915 Y183.976 E.05087
G1 X217.588 Y185.05 E.05085
G1 X216.156 Y185.98 E.05086
G1 X214.635 Y186.755 E.05085
G1 X213.041 Y187.367 E.05086
G1 X211.391 Y187.809 E.05088
G1 X209.705 Y188.076 E.05085
G1 X207.982 Y188.166 E.05139
G1 X92.018 Y188.166 E3.45417
G1 X90.295 Y188.076 E.05139
G1 X88.609 Y187.809 E.05085
G1 X86.959 Y187.367 E.05088
G1 X85.365 Y186.755 E.05086
G1 X83.844 Y185.98 E.05085
G1 X82.412 Y185.05 E.05086
G1 X81.085 Y183.976 E.05085
G1 X79.878 Y182.768 E.05087
G1 X78.803 Y181.441 E.05087
G1 X77.873 Y180.01 E.05084
G1 X77.132 Y178.554 E.04866
G1 X76.486 Y176.893 E.05309
G1 X76.044 Y175.245 E.05082
G1 X75.777 Y173.559 E.05085
G1 X75.687 Y171.836 E.05139
G1 X75.687 Y113.164 E1.74764
G1 X75.777 Y111.441 E.05139
G1 X76.044 Y109.755 E.05085
G1 X76.486 Y108.106 E.05085
G1 X77.098 Y106.512 E.05086
G1 X77.873 Y104.99 E.05087
G1 X78.803 Y103.559 E.05084
G1 X79.831 Y102.289 E.04867
G1 X81.026 Y101.084 E.05055
G1 X81.026 Y101.084 F9000
G1 X80.759 Y100.818
;TYPE:External perimeter
G1 F1200
G1 X80.833 Y100.743 E.00314
G1 X82.19 Y99.644 E.05201
G1 X83.655 Y98.693 E.05203
G1 X85.212 Y97.9 E.05205
G1 X86.843 Y97.274 E.05204
G1 X88.53 Y96.822 E.05202
G1 X90.255 Y96.548 E.05203
G1 X92.008 Y96.456 E.05229
G1 X208.07 Y96.461 E3.45708
G1 X209.745 Y96.548 E.04996
G1 X211.47 Y96.822 E.05203
G1 X213.157 Y97.274 E.05202
G1 X214.788 Y97.9 E.05204
G1 X216.345 Y98.693 E.05205
G1 X217.81 Y99.644 E.05203
G1 X219.168 Y100.744 E.05206
G1 X220.403 Y101.979 E.05202
G1 X221.502 Y103.337 E.05204
G1 X222.454 Y104.802 E.05204
G1 X223.213 Y106.291 E.04978
G1 X223.873 Y107.99 E.05429
G1 X224.325 Y109.677 E.05202
G1 X224.598 Y111.402 E.05202
G1 X224.667 Y112.706 E.0389
G1 X224.69 Y113.604 E.02676
G1 X224.69 Y171.845 E1.7348
G1 X224.598 Y173.598 E.05229
G1 X224.325 Y175.323 E.05202
G1 X223.873 Y177.011 E.05205
G1 X223.247 Y178.642 E.05204
G1 X222.454 Y180.198 E.05202
G1 X221.502 Y181.663 E.05204
G1 X220.403 Y183.021 E.05204
G1 X219.168 Y184.256 E.05202
G1 X217.81 Y185.356 E.05206
G1 X216.345 Y186.307 E.05203
G1 X214.788 Y187.1 E.05205
G1 X213.157 Y187.726 E.05204
G1 X211.47 Y188.178 E.05202
G1 X209.745 Y188.452 E.05203
G1 X207.992 Y188.544 E.05229
G1 X92.008 Y188.544 E3.45476
G1 X90.255 Y188.452 E.05229
G1 X88.53 Y188.178 E.05203
G1 X86.843 Y187.726 E.05202
G1 X85.212 Y187.1 E.05204
G1 X83.655 Y186.307 E.05205
G1 X82.19 Y185.356 E.05203
G1 X80.832 Y184.256 E.05206
G1 X79.597 Y183.021 E.05202
G1 X78.498 Y181.663 E.05204
G1 X77.546 Y180.198 E.05204
G1 X76.787 Y178.709 E.04978
G1 X76.127 Y177.01 E.05429
G1 X75.675 Y175.323 E.05202
G1 X75.402 Y173.598 E.05202
G1 X75.31 Y171.845 E.05229
G1 X75.31 Y113.155 E1.74817
G1 X75.402 Y111.402 E.05229
G1 X75.675 Y109.677 E.05202
G1 X76.127 Y107.989 E.05205
G1 X76.753 Y106.358 E.05204
G1 X77.546 Y104.802 E.05202
G1 X78.498 Y103.337 E.05204
G1 X79.55 Y102.037 E.04981
G1 X80.717 Y100.86 E.04937
G1 E-2.1 F3600
;WIPE_START
G1 F7200
G1 X80.759 Y100.818 E-.02821
G1 X80.833 Y100.743 E-.05005
G1 X82.178 Y99.655 E-.82174
;WIPE_END
G1 X220.775 Y103.829 F9000
G1 E3 F2400
;TYPE:Solid infill
;WIDTH:0.420433
G1 F1200
G1 X218.466 Y101.519 E.0974
G1 X217.195 Y100.491 E.04875
G1 X216.362 Y99.949 E.02964
G1 X221.197 Y104.785 E.20393
G1 X221.548 Y105.325 E.01921
G1 X221.906 Y106.027 E.0235
G1 X215.119 Y99.241 E.28621
G1 X214.363 Y98.855 E.02531
G1 X214.098 Y98.754 E.00846
G1 X222.382 Y107.037 E.34934
G1 X222.722 Y107.911 E.02797
G1 X213.232 Y98.421 E.40022
G1 X212.834 Y98.268 E.01272
G1 X212.44 Y98.163 E.01216
G1 X222.984 Y108.707 E.44467
G1 X223.179 Y109.436 E.0225
G1 X211.71 Y97.967 E.48368
G1 X211.252 Y97.845 E.01413
G1 X211.016 Y97.807 E.00713
G1 X223.339 Y110.13 E.5197
G1 X223.44 Y110.764 E.01914
G1 X210.382 Y97.707 E.55067
G1 X209.748 Y97.606 E.01914
G1 X223.54 Y111.399 E.58167
G1 X223.582 Y111.975 E.01722
G1 X209.172 Y97.564 E.60773
G1 X208.608 Y97.535 E.01684
G1 X223.612 Y112.538 E.63274
G1 X223.641 Y113.102 E.01684
G1 X208.045 Y97.505 E.65775
G1 X207.511 Y97.505 E.01592
G1 X223.645 Y113.64 E.68044
G1 X223.645 Y114.174 E.01592
G1 X206.977 Y97.505 E.70296
G1 X206.443 Y97.505 E.01592
G1 X223.645 Y114.707 E.72546
G1 X223.645 Y115.241 E.01592
G1 X205.909 Y97.505 E.74798
G1 X205.375 Y97.505 E.01592
G1 X223.645 Y115.775 E.7705
G1 X223.645 Y116.309 E.01592
G1 X204.841 Y97.505 E.79302
G1 X204.307 Y97.505 E.01592
G1 X223.645 Y116.843 E.81554
G1 X223.645 Y117.377 E.01592
G1 X203.774 Y97.505 E.83804
G1 X203.24 Y97.505 E.01592
G1 X223.645 Y117.911 E.86056
G1 X223.645 Y118.445 E.01592
G1 X202.706 Y97.505 E.88308
G1 X202.172 Y97.505 E.01592
G1 X223.645 Y118.979 E.9056
G1 X223.645 Y119.512 E.01589
G1 X201.638 Y97.505 E.9281
G1 X201.104 Y97.505 E.01592
G1 X223.645 Y120.046 E.95062
G1 X223.645 Y120.58 E.01592
G1 X200.57 Y97.505 E.97314
G1 X200.036 Y97.505 E.01592
G1 X223.645 Y121.114 E.99566
G1 X223.645 Y121.648 E.01592
G1 X199.502 Y97.505 E1.01818
G1 X198.968 Y97.505 E.01592
G1 X223.645 Y122.182 E1.0407
G1 X223.645 Y122.716 E.01592
G1 X198.434 Y97.505 E1.06322
G1 X197.901 Y97.505 E.01589
G1 X223.645 Y123.25 E1.08572
G1 X223.645 Y123.784 E.01592
G1 X197.367 Y97.505 E1.10824
G1 X196.833 Y97.505 E.01592
G1 X223.645 Y124.317 E1.13074
G1 X223.645 Y124.851 E.01592
G1 X196.299 Y97.505 E1.15326
G1 X195.765 Y97.505 E.01592
G1 X223.645 Y125.385 E1.17578
G1 X223.645 Y125.919 E.01592
G1 X195.231 Y97.505 E1.1983
G1 X194.697 Y97.505 E.01592
G1 X223.645 Y126.453 E1.22082
G1 X223.645 Y126.987 E.01592
G1 X194.163 Y97.505 E1.24334
G1 X193.629 Y97.505 E.01592
G1 X223.645 Y127.521 E1.26586
G1 X223.645 Y128.055 E.01592
G1 X193.095 Y97.505 E1.28839
G1 X192.562 Y97.505 E.01589
G1 X223.645 Y128.588 E1.31086
G1 X223.645 Y129.122 E.01592
G1 X192.028 Y97.505 E1.33338
G1 X191.494 Y97.504 E.01592
G1 X223.645 Y129.656 E1.35593
G1 X223.645 Y130.19 E.01592
G1 X190.96 Y97.504 E1.37845
G1 X190.426 Y97.504 E.01592
G1 X223.645 Y130.724 E1.40097
G1 X223.645 Y131.258 E.01592
G1 X189.892 Y97.504 E1.42349
G1 X189.358 Y97.504 E.01592
G1 X223.645 Y131.792 E1.44601
G1 X223.645 Y132.326 E.01592
G1 X188.824 Y97.504 E1.46853
G1 X188.29 Y97.504 E.01592
G1 X223.645 Y132.86 E1.49105
G1 X223.645 Y133.393 E.01589
G1 X187.756 Y97.504 E1.51355
G1 X187.223 Y97.504 E.01589
G1 X223.645 Y133.927 E1.53605
G1 X223.645 Y134.461 E.01592
G1 X186.689 Y97.504 E1.55857
G1 X186.155 Y97.504 E.01592
G1 X223.645 Y134.995 E1.58109
G1 X223.645 Y135.529 E.01592
G1 X185.621 Y97.504 E1.60361
G1 X185.087 Y97.504 E.01592
G1 X223.645 Y136.063 E1.62613
G1 X223.645 Y136.597 E.01592
G1 X184.553 Y97.504 E1.64865
G1 X184.019 Y97.504 E.01592
G1 X223.645 Y137.131 E1.67117
G1 X223.645 Y137.664 E.01589
G1 X183.485 Y97.504 E1.69367
G1 X182.951 Y97.504 E.01592
G1 X223.645 Y138.198 E1.71619
G1 X223.645 Y138.732 E.01592
G1 X182.417 Y97.504 E1.73871
G1 X181.884 Y97.504 E.01589
G1 X223.645 Y139.266 E1.76121
G1 X223.645 Y139.8 E.01592
G1 X181.35 Y97.504 E1.78373
G1 X180.816 Y97.504 E.01592
G1 X223.645 Y140.334 E1.80625
G1 X223.645 Y140.868 E.01592
G1 X180.282 Y97.504 E1.82877
G1 X179.748 Y97.504 E.01592
G1 X223.645 Y141.402 E1.85129
G1 X223.645 Y141.936 E.01592
G1 X179.214 Y97.504 E1.87381
G1 X178.68 Y97.504 E.01592
G1 X223.645 Y142.469 E1.89631
G1 X223.645 Y143.003 E.01592
G1 X178.146 Y97.504 E1.91883
G1 X177.612 Y97.504 E.01592
G1 X223.645 Y143.537 E1.94135
G1 X223.645 Y144.071 E.01592
G1 X177.078 Y97.504 E1.96387
G1 X176.544 Y97.504 E.01592
G1 X223.645 Y144.605 E1.98639
G1 X223.645 Y145.139 E.01592
G1 X176.011 Y97.504 E2.00889
G1 X175.477 Y97.504 E.01592
G1 X223.645 Y145.673 E2.03141
G1 X223.645 Y146.207 E.01592
G1 X174.943 Y97.504 E2.05393
G1 X174.409 Y97.504 E.01592
G1 X223.645 Y146.741 E2.07645
G1 X223.645 Y147.274 E.01589
G1 X173.875 Y97.504 E2.09895
G1 X173.341 Y97.504 E.01592
