; generated by PrusaSlicer 2.6.1+linux-x64-GTK3 on 2023-10-01 at 13:39:35 UTC
; manually modified to change the print order outside to inside.

; 

; external perimeters extrusion width = 0.42mm
; perimeters extrusion width = 0.44mm
; infill extrusion width = 0.44mm
; solid infill extrusion width = 0.44mm
; top infill extrusion width = 0.40mm
; first layer extrusion width = 0.42mm

; external perimeters extrusion width = 0.42mm
; perimeters extrusion width = 0.44mm
; infill extrusion width = 0.44mm
; solid infill extrusion width = 0.44mm
; top infill extrusion width = 0.40mm
; first layer extrusion width = 0.42mm

; external perimeters extrusion width = 0.42mm
; perimeters extrusion width = 0.44mm
; infill extrusion width = 0.44mm
; solid infill extrusion width = 0.44mm
; top infill extrusion width = 0.40mm
; first layer extrusion width = 0.42mm

; external perimeters extrusion width = 0.42mm
; perimeters extrusion width = 0.44mm
; infill extrusion width = 0.44mm
; solid infill extrusion width = 0.44mm
; top infill extrusion width = 0.40mm
; first layer extrusion width = 0.42mm

; external perimeters extrusion width = 0.42mm
; perimeters extrusion width = 0.44mm
; infill extrusion width = 0.44mm
; solid infill extrusion width = 0.44mm
; top infill extrusion width = 0.40mm
; first layer extrusion width = 0.42mm

; external perimeters extrusion width = 0.42mm
; perimeters extrusion width = 0.44mm
; infill extrusion width = 0.44mm
; solid infill extrusion width = 0.44mm
; top infill extrusion width = 0.40mm
; first layer extrusion width = 0.42mm

; external perimeters extrusion width = 0.42mm
; perimeters extrusion width = 0.44mm
; infill extrusion width = 0.44mm
; solid infill extrusion width = 0.44mm
; top infill extrusion width = 0.40mm
; first layer extrusion width = 0.42mm

; external perimeters extrusion width = 0.42mm
; perimeters extrusion width = 0.44mm
; infill extrusion width = 0.44mm
; solid infill extrusion width = 0.44mm
; top infill extrusion width = 0.40mm
; first layer extrusion width = 0.42mm

; external perimeters extrusion width = 0.42mm
; perimeters extrusion width = 0.44mm
; infill extrusion width = 0.44mm
; solid infill extrusion width = 0.44mm
; top infill extrusion width = 0.40mm
; first layer extrusion width = 0.42mm

; external perimeters extrusion width = 0.42mm
; perimeters extrusion width = 0.44mm
; infill extrusion width = 0.44mm
; solid infill extrusion width = 0.44mm
; top infill extrusion width = 0.40mm
; first layer extrusion width = 0.42mm

; external perimeters extrusion width = 0.42mm
; perimeters extrusion width = 0.44mm
; infill extrusion width = 0.44mm
; solid infill extrusion width = 0.44mm
; top infill extrusion width = 0.40mm
; first layer extrusion width = 0.42mm

M201 X500 Y500 Z100 E5000 ; sets maximum accelerations, mm/sec^2
M203 X500 Y500 Z10 E60 ; sets maximum feedrates, mm / sec
M204 S500 T1000 ; sets acceleration (S) and retract acceleration (R), mm/sec^2
M205 X8.00 Y8.00 Z0.40 E5.00 ; sets the jerk limits, mm/sec
M205 S0 T0 ; sets the minimum extruding and travel feed rate, mm/sec
;TYPE:Custom
G90 ; use absolute coordinates
M83 ; extruder relative mode
M104 S150 ; set temporary nozzle temp to prevent oozing during homing
M140 S60 ; set final bed temp
G4 S30 ; allow partial nozzle warmup
G28 ; home all axis
G1 Z50 F240
G1 X2.0 Y10 F3000
M104 S225 ; set final nozzle temp
M190 S60 ; wait for bed temp to stabilize
M109 S225 ; wait for nozzle temp to stabilize
G1 Z0.28 F240
G92 E0
G1 X2.0 Y140 E10 F1500 ; prime the nozzle
G1 X2.3 Y140 F5000
G92 E0
G1 X2.3 Y10 E10 F1200 ; prime the nozzle
G92 E0
G21 ; set units to millimeters
G90 ; use absolute coordinates
M83 ; use relative distances for extrusion
; Filament gcode
M107
;LAYER_CHANGE
;Z:0.2
;HEIGHT:0.2
;BEFORE_LAYER_CHANGE
G92 E0
;0.2


G1 E-3 F3600
G1 Z.2 F9000
;AFTER_LAYER_CHANGE
;0.2
G1 X6.822 Y1.698
G1 E3 F2400
M204 S500
;TYPE:Skirt/Brim
;WIDTH:0.42
G1 F1200
G1 X7.017 Y.917 E.02524
G1 X8.107 Y-.297 E.05116
G1 X10 Y-.877 E.06208
G1 X290 Y-.877 E8.7792
G1 X291.583 Y-.483 E.05115
G1 X292.797 Y.607 E.05116
G1 X293.377 Y2.5 E.06208
G1 X293.377 Y282.5 E8.7792
G1 X292.983 Y284.083 E.05115
G1 X291.893 Y285.297 E.05116
G1 X290 Y285.877 E.06208
G1 X10 Y285.877 E8.7792
G1 X8.417 Y285.483 E.05115
G1 X7.203 Y284.393 E.05116
G1 X6.623 Y282.5 E.06208
G1 X6.623 Y2.5 E8.7792
G1 X6.808 Y1.756 E.02404

; printing object BedLevelTest.stl_1 id:0 copy 0
G1 E-2.1 F3600
;WIPE_START
G1 F7200
G1 X47.215 Y37.712 E-.9
;WIPE_END
G1 X10.379 Y2.7 F9000
G1 E3 F2400
;WIDTH:0.4
G1 F1200
G1 X289.621 Y2.7 E8.29106
;WIDTH:0.430633
G1 X289.695 Y2.715 E.00243
;WIDTH:0.461266
G1 X289.769 Y2.731 E.00263
G1 X289.785 Y2.805 E.00263
;WIDTH:0.430633
G1 X289.8 Y2.879 E.00243
;WIDTH:0.4
G1 X289.8 Y282.121 E8.29106
;WIDTH:0.430633
G1 X289.785 Y282.195 E.00243
;WIDTH:0.461266
G1 X289.769 Y282.269 E.00263
G1 X289.695 Y282.285 E.00263
;WIDTH:0.430633
G1 X289.621 Y282.3 E.00243
;WIDTH:0.4
G1 X10.379 Y282.3 E8.29106
;WIDTH:0.430632
G1 X10.305 Y282.285 E.00243
;WIDTH:0.461264
G1 X10.231 Y282.269 E.00263
G1 X10.215 Y282.195 E.00263
;WIDTH:0.430632
G1 X10.2 Y282.121 E.00243
;WIDTH:0.4
G1 X10.2 Y2.879 E8.29106
;WIDTH:0.430632
G1 X10.215 Y2.805 E.00243
;WIDTH:0.461264
G1 X10.231 Y2.731 E.00263
G1 X10.305 Y2.715 E.00263
;WIDTH:0.430632
G1 X10.32 Y2.712 E.00049
; stop printing object BedLevelTest.stl_1 id:0 copy 0

; printing object BedLevelTest.stl_2 id:1 copy 0
G1 E-2.1 F3600
;WIPE_START
G1 F7200
G1 X37.215 Y27.712 E-.9
;WIPE_END
G1 X15.379 Y7.7 F9000
G1 E3 F2400
;WIDTH:0.4
G1 F1200
G1 X284.621 Y7.7 E7.99415
;WIDTH:0.430633
G1 X284.695 Y7.715 E.00243
;WIDTH:0.461266
G1 X284.769 Y7.731 E.00263
G1 X284.785 Y7.805 E.00263
;WIDTH:0.430633
G1 X284.8 Y7.879 E.00243
;WIDTH:0.4
G1 X284.8 Y277.121 E7.99415
;WIDTH:0.430633
G1 X284.785 Y277.195 E.00243
;WIDTH:0.461266
G1 X284.769 Y277.269 E.00263
G1 X284.695 Y277.285 E.00263
;WIDTH:0.430633
G1 X284.621 Y277.3 E.00243
;WIDTH:0.4
G1 X15.379 Y277.3 E7.99415
;WIDTH:0.430632
G1 X15.305 Y277.285 E.00243
;WIDTH:0.461264
G1 X15.231 Y277.269 E.00263
G1 X15.215 Y277.195 E.00263
;WIDTH:0.430632
G1 X15.2 Y277.121 E.00243
;WIDTH:0.4
G1 X15.2 Y7.879 E7.99415
;WIDTH:0.430632
G1 X15.215 Y7.805 E.00243
;WIDTH:0.461264
G1 X15.231 Y7.731 E.00263
G1 X15.305 Y7.715 E.00263
;WIDTH:0.430632
G1 X15.32 Y7.712 E.00049
; stop printing object BedLevelTest.stl_2 id:1 copy 0

; printing object BedLevelTest.stl_3 id:2 copy 0
G1 E-2.1 F3600
;WIPE_START
G1 F7200
G1 X57.215 Y47.712 E-.9
;WIPE_END
G1 X20.379 Y12.7 F9000
G1 E3 F2400
;WIDTH:0.399992
G1 F1200
G1 X279.621 Y12.7 E7.69706
;WIDTH:0.430624
G1 X279.695 Y12.715 E.00243
;WIDTH:0.461256
G1 X279.769 Y12.731 E.00263
G1 X279.785 Y12.805 E.00263
;WIDTH:0.430624
G1 X279.8 Y12.879 E.00243
;WIDTH:0.399992
G1 X279.8 Y272.121 E7.69706
;WIDTH:0.430624
G1 X279.785 Y272.195 E.00243
;WIDTH:0.461256
G1 X279.769 Y272.269 E.00263
G1 X279.695 Y272.285 E.00263
;WIDTH:0.430624
G1 X279.621 Y272.3 E.00243
;WIDTH:0.399992
G1 X20.379 Y272.3 E7.69706
;WIDTH:0.430623
G1 X20.305 Y272.285 E.00243
;WIDTH:0.461254
G1 X20.231 Y272.269 E.00263
G1 X20.215 Y272.195 E.00263
;WIDTH:0.430623
G1 X20.2 Y272.121 E.00243
;WIDTH:0.399992
G1 X20.2 Y12.879 E7.69706
;WIDTH:0.430623
G1 X20.215 Y12.805 E.00243
;WIDTH:0.461254
G1 X20.231 Y12.731 E.00263
G1 X20.305 Y12.715 E.00263
;WIDTH:0.430623
G1 X20.32 Y12.712 E.00049
; stop printing object BedLevelTest.stl_3 id:2 copy 0

; printing object BedLevelTest.stl_4 id:3 copy 0
G1 E-2.1 F3600
;WIPE_START
G1 F7200
G1 X62.215 Y52.712 E-.9
;WIPE_END
G1 X25.379 Y17.7 F9000
G1 E3 F2400
;WIDTH:0.4
G1 F1200
G1 X274.621 Y17.7 E7.40033
;WIDTH:0.430633
G1 X274.695 Y17.715 E.00243
;WIDTH:0.461266
G1 X274.769 Y17.731 E.00263
G1 X274.785 Y17.805 E.00263
;WIDTH:0.430633
G1 X274.8 Y17.879 E.00243
;WIDTH:0.4
G1 X274.8 Y267.121 E7.40033
;WIDTH:0.430633
G1 X274.785 Y267.195 E.00243
;WIDTH:0.461266
G1 X274.769 Y267.269 E.00263
G1 X274.695 Y267.285 E.00263
;WIDTH:0.430633
G1 X274.621 Y267.3 E.00243
;WIDTH:0.4
G1 X25.379 Y267.3 E7.40033
;WIDTH:0.430632
G1 X25.305 Y267.285 E.00243
;WIDTH:0.461264
G1 X25.231 Y267.269 E.00263
G1 X25.215 Y267.195 E.00263
;WIDTH:0.430632
G1 X25.2 Y267.121 E.00243
;WIDTH:0.4
G1 X25.2 Y17.879 E7.40033
;WIDTH:0.430632
G1 X25.215 Y17.805 E.00243
;WIDTH:0.461264
G1 X25.231 Y17.731 E.00263
G1 X25.305 Y17.715 E.00263
;WIDTH:0.430632
G1 X25.32 Y17.712 E.00049
; stop printing object BedLevelTest.stl_4 id:3 copy 0

; printing object BedLevelTest.stl_5 id:4 copy 0
G1 E-2.1 F3600
;WIPE_START
G1 F7200
G1 X22.215 Y12.712 E-.9
;WIPE_END
G1 X30.379 Y22.7 F9000
G1 E3 F2400
;WIDTH:0.4
G1 F1200
G1 X269.621 Y22.7 E7.10341
;WIDTH:0.430633
G1 X269.695 Y22.715 E.00243
;WIDTH:0.461266
G1 X269.769 Y22.731 E.00263
G1 X269.785 Y22.805 E.00263
;WIDTH:0.430633
G1 X269.8 Y22.879 E.00243
;WIDTH:0.4
G1 X269.8 Y262.121 E7.10341
;WIDTH:0.430633
G1 X269.785 Y262.195 E.00243
;WIDTH:0.461266
G1 X269.769 Y262.269 E.00263
G1 X269.695 Y262.285 E.00263
;WIDTH:0.430633
G1 X269.621 Y262.3 E.00243
;WIDTH:0.4
G1 X30.379 Y262.3 E7.10341
;WIDTH:0.430632
G1 X30.305 Y262.285 E.00243
;WIDTH:0.461264
G1 X30.231 Y262.269 E.00263
G1 X30.215 Y262.195 E.00263
;WIDTH:0.430632
G1 X30.2 Y262.121 E.00243
;WIDTH:0.4
G1 X30.2 Y22.879 E7.10341
;WIDTH:0.430632
G1 X30.215 Y22.805 E.00243
;WIDTH:0.461264
G1 X30.231 Y22.731 E.00263
G1 X30.305 Y22.715 E.00263
;WIDTH:0.430632
G1 X30.32 Y22.712 E.00049
; stop printing object BedLevelTest.stl_5 id:4 copy 0

; printing object BedLevelTest.stl_6 id:5 copy 0
G1 E-2.1 F3600
;WIPE_START
G1 F7200
G1 X42.215 Y32.712 E-.9
;WIPE_END
G1 X35.379 Y27.7 F9000
G1 E3 F2400
;WIDTH:0.4
G1 F1200
G1 X264.621 Y27.7 E6.8065
;WIDTH:0.430633
G1 X264.695 Y27.715 E.00243
;WIDTH:0.461266
G1 X264.769 Y27.731 E.00263
G1 X264.785 Y27.805 E.00263
;WIDTH:0.430633
G1 X264.8 Y27.879 E.00243
;WIDTH:0.4
G1 X264.8 Y257.121 E6.8065
;WIDTH:0.430633
G1 X264.785 Y257.195 E.00243
;WIDTH:0.461266
G1 X264.769 Y257.269 E.00263
G1 X264.695 Y257.285 E.00263
;WIDTH:0.430633
G1 X264.621 Y257.3 E.00243
;WIDTH:0.4
G1 X35.379 Y257.3 E6.8065
;WIDTH:0.430632
G1 X35.305 Y257.285 E.00243
;WIDTH:0.461264
G1 X35.231 Y257.269 E.00263
G1 X35.215 Y257.195 E.00263
;WIDTH:0.430632
G1 X35.2 Y257.121 E.00243
;WIDTH:0.4
G1 X35.2 Y27.879 E6.8065
;WIDTH:0.430632
G1 X35.215 Y27.805 E.00243
;WIDTH:0.461264
G1 X35.231 Y27.731 E.00263
G1 X35.305 Y27.715 E.00263
;WIDTH:0.430632
G1 X35.32 Y27.712 E.00049
; stop printing object BedLevelTest.stl_6 id:5 copy 0

; printing object BedLevelTest.stl_7 id:6 copy 0
G1 E-2.1 F3600
;WIPE_START
G1 F7200
G1 X7.017 Y.917 E-.4107
G1 X7.705 Y.151 E-.4893
;WIPE_END
G1 X40.379 Y32.7 F9000
G1 E3 F2400
;TYPE:External perimeter
;WIDTH:0.4
G1 F1200
G1 X259.621 Y32.7 E6.50959
;WIDTH:0.430633
G1 X259.695 Y32.715 E.00243
;WIDTH:0.461266
G1 X259.769 Y32.731 E.00263
G1 X259.785 Y32.805 E.00263
;WIDTH:0.430633
G1 X259.8 Y32.879 E.00243
;WIDTH:0.4
G1 X259.8 Y252.121 E6.50959
;WIDTH:0.430633
G1 X259.785 Y252.195 E.00243
;WIDTH:0.461266
G1 X259.769 Y252.269 E.00263
G1 X259.695 Y252.285 E.00263
;WIDTH:0.430633
G1 X259.621 Y252.3 E.00243
;WIDTH:0.4
G1 X40.379 Y252.3 E6.50959
;WIDTH:0.430632
G1 X40.305 Y252.285 E.00243
;WIDTH:0.461264
G1 X40.231 Y252.269 E.00263
G1 X40.215 Y252.195 E.00263
;WIDTH:0.430632
G1 X40.2 Y252.121 E.00243
;WIDTH:0.4
G1 X40.2 Y32.879 E6.50959
;WIDTH:0.430632
G1 X40.215 Y32.805 E.00243
;WIDTH:0.461264
G1 X40.231 Y32.731 E.00263
G1 X40.305 Y32.715 E.00263
;WIDTH:0.430632
G1 X40.32 Y32.712 E.00049
; stop printing object BedLevelTest.stl_7 id:6 copy 0

; printing object BedLevelTest.stl_8 id:7 copy 0
G1 E-2.1 F3600
;WIPE_START
G1 F7200
G1 X27.215 Y17.712 E-.9
;WIPE_END
G1 X45.379 Y37.7 F9000
G1 E3 F2400
;WIDTH:0.4
G1 F1200
G1 X254.621 Y37.7 E6.21267
;WIDTH:0.430633
G1 X254.695 Y37.715 E.00243
;WIDTH:0.461266
G1 X254.769 Y37.731 E.00263
G1 X254.785 Y37.805 E.00263
;WIDTH:0.430633
G1 X254.8 Y37.879 E.00243
;WIDTH:0.4
G1 X254.8 Y247.121 E6.21267
;WIDTH:0.430633
G1 X254.785 Y247.195 E.00243
;WIDTH:0.461266
G1 X254.769 Y247.269 E.00263
G1 X254.695 Y247.285 E.00263
;WIDTH:0.430633
G1 X254.621 Y247.3 E.00243
;WIDTH:0.4
G1 X45.379 Y247.3 E6.21267
;WIDTH:0.430632
G1 X45.305 Y247.285 E.00243
;WIDTH:0.461264
G1 X45.231 Y247.269 E.00263
G1 X45.215 Y247.195 E.00263
;WIDTH:0.430632
G1 X45.2 Y247.121 E.00243
;WIDTH:0.4
G1 X45.2 Y37.879 E6.21267
;WIDTH:0.430632
G1 X45.215 Y37.805 E.00243
;WIDTH:0.461264
G1 X45.231 Y37.731 E.00263
G1 X45.305 Y37.715 E.00263
;WIDTH:0.430632
G1 X45.32 Y37.712 E.00049
; stop printing object BedLevelTest.stl_8 id:7 copy 0

; printing object BedLevelTest.stl_9 id:8 copy 0
G1 E-2.1 F3600
;WIPE_START
G1 F7200
G1 X32.215 Y22.712 E-.9
;WIPE_END
G1 X50.379 Y42.7 F9000
G1 E3 F2400
;WIDTH:0.4
G1 F1200
G1 X249.621 Y42.7 E5.91576
;WIDTH:0.430633
G1 X249.695 Y42.715 E.00243
;WIDTH:0.461266
G1 X249.769 Y42.731 E.00263
G1 X249.785 Y42.805 E.00263
;WIDTH:0.430633
G1 X249.8 Y42.879 E.00243
;WIDTH:0.4
G1 X249.8 Y242.121 E5.91576
;WIDTH:0.430633
G1 X249.785 Y242.195 E.00243
;WIDTH:0.461266
G1 X249.769 Y242.269 E.00263
G1 X249.695 Y242.285 E.00263
;WIDTH:0.430633
G1 X249.621 Y242.3 E.00243
;WIDTH:0.4
G1 X50.379 Y242.3 E5.91576
;WIDTH:0.430632
G1 X50.305 Y242.285 E.00243
;WIDTH:0.461264
G1 X50.231 Y242.269 E.00263
G1 X50.215 Y242.195 E.00263
;WIDTH:0.430632
G1 X50.2 Y242.121 E.00243
;WIDTH:0.4
G1 X50.2 Y42.879 E5.91576
;WIDTH:0.430632
G1 X50.215 Y42.805 E.00243
;WIDTH:0.461264
G1 X50.231 Y42.731 E.00263
G1 X50.305 Y42.715 E.00263
;WIDTH:0.430632
G1 X50.32 Y42.712 E.00049
; stop printing object BedLevelTest.stl_9 id:8 copy 0

; printing object BedLevelTest.stl_10 id:9 copy 0
G1 E-2.1 F3600
;WIPE_START
G1 F7200
G1 X12.215 Y2.712 E-.9
;WIPE_END
G1 X55.379 Y47.7 F9000
G1 E3 F2400
;WIDTH:0.4
G1 F1200
G1 X244.621 Y47.7 E5.61885
;WIDTH:0.430633
G1 X244.695 Y47.715 E.00243
;WIDTH:0.461266
G1 X244.769 Y47.731 E.00263
G1 X244.785 Y47.805 E.00263
;WIDTH:0.430633
G1 X244.8 Y47.879 E.00243
;WIDTH:0.4
G1 X244.8 Y237.121 E5.61885
;WIDTH:0.430633
G1 X244.785 Y237.195 E.00243
;WIDTH:0.461266
G1 X244.769 Y237.269 E.00263
G1 X244.695 Y237.285 E.00263
;WIDTH:0.430633
G1 X244.621 Y237.3 E.00243
;WIDTH:0.4
G1 X55.379 Y237.3 E5.61885
;WIDTH:0.430632
G1 X55.305 Y237.285 E.00243
;WIDTH:0.461264
G1 X55.231 Y237.269 E.00263
G1 X55.215 Y237.195 E.00263
;WIDTH:0.430632
G1 X55.2 Y237.121 E.00243
;WIDTH:0.4
G1 X55.2 Y47.879 E5.61885
;WIDTH:0.430632
G1 X55.215 Y47.805 E.00243
;WIDTH:0.461264
G1 X55.231 Y47.731 E.00263
G1 X55.305 Y47.715 E.00263
;WIDTH:0.430632
G1 X55.32 Y47.712 E.00049
; stop printing object BedLevelTest.stl_10 id:9 copy 0

G1 E-2.1 F3600
;WIPE_START
G1 F7200;_WIPE
G1 X52.215 Y42.712 E-.9
;WIPE_END
M107
;TYPE:Custom
; Filament-specific end gcode 
;END gcode for filament
G1 Z2.2 F600 ; Move print head up
G1 X5 Y246.5 F9000 ; present print
G1 Z70.2 F600 ; Move print head further up
G1 Z204 F600 ; Move print head further up
M140 S0 ; turn off heatbed
M104 S0 ; turn off temperature
M107 ; turn off fan
M84 X Y E ; disable motors

; prusaslicer_config = begin
; autoemit_temperature_commands = 1
; avoid_crossing_curled_overhangs = 0
; avoid_crossing_perimeters = 0
; avoid_crossing_perimeters_max_detour = 0
; bed_custom_model = 
; bed_custom_texture = 
; bed_shape = 0x-5,300x-5,300x290,0x290
; bed_temperature = 60
; before_layer_gcode = ;BEFORE_LAYER_CHANGE\nG92 E0\n;{layer_z}\n\n
; between_objects_gcode = 
; bottom_fill_pattern = monotonic
; bottom_solid_layers = 4
; bottom_solid_min_thickness = 0
; bridge_acceleration = 250
; bridge_angle = 0
; bridge_fan_speed = 100
; bridge_flow_ratio = 0.95
; bridge_speed = 25
; brim_separation = 0
; brim_type = outer_only
; brim_width = 0
; color_change_gcode = M600
; compatible_printers_condition_cummulative = "printer_model=~/(ENDER|CR|SERMOON).*/ and nozzle_diameter[0]==0.4";printer_notes=~/.*PRINTER_VENDOR_CREALITY.*/
; complete_objects = 0
; cooling = 1
; cooling_tube_length = 5
; cooling_tube_retraction = 91.5
; default_acceleration = 500
; default_filament_profile = "Generic PLA @CREALITY"
; default_print_profile = "0.16 mm OPTIMAL (0.4 mm nozzle) @CREALITY"
; deretract_speed = 40
; disable_fan_first_layers = 1
